static/img/showcase/crowdeats_logo.svg

<svg fill="none" height="96" viewBox="0 0 358 96" width="358" xmlns="http://www.w3.org/2000/svg"><path d="m78.8559 45.014c.5497-.0532 1.0401.3494 1.0761.9005.4476 6.8519-1.3208 13.6764-5.0582 19.4578-3.9185 6.0617-9.7713 10.6206-16.6078 12.9363-6.8365 2.3156-14.255 2.2519-21.0507-.1807-6.7958-2.4326-12.5695-7.0913-16.3834-13.2194s-5.444-13.3657-4.6255-20.5371c.8185-7.1715 4.0375-13.8556 9.1341-18.9667 5.0967-5.1111 11.7716-8.3491 18.9407-9.1879 6.8375-.8 13.7415.6271 19.6914 4.0546.4786.2757.6232.8934.3327 1.3632l-15.2443 24.6498c-.4351.7035.1235 1.601.9468 1.5213z" fill="#595060"/><path d="m78.5203 13.7688c.2944-.4673.9128-.6089 1.3707-.3001 3.8158 2.5731 7.0351 5.9414 9.4342 9.8781 2.3992 3.9366 3.9174 8.3417 4.4554 12.9124.0646.5485-.3447 1.0333-.8949 1.0807l-28.8819 2.4875c-.8231.0709-1.3722-.8302-.932-1.5292z" fill="#cfaaff"/><path d="m129.536 55.312 5.328 2.16c-1.856 4.608-5.52 6.912-10.992 6.912-3.744 0-6.656-1.184-8.736-3.552-2.048-2.336-3.072-5.312-3.072-8.928s1.024-6.592 3.072-8.928c2.08-2.368 4.992-3.552 8.736-3.552 5.472 0 9.136 2.304 10.992 6.912l-5.328 2.16c-1.312-2.656-3.2-3.984-5.664-3.984-1.792 0-3.168.672-4.128 2.016-.96 1.312-1.44 3.104-1.44 5.376s.48 4.08 1.44 5.424c.96 1.312 2.336 1.968 4.128 1.968 2.464 0 4.352-1.328 5.664-3.984zm11.284.096v8.592h-5.952v-24.192h5.952v3.936c1.824-2.88 4.208-4.32 7.152-4.32.96 0 1.936.16 2.928.48l-1.104 5.52c-.736-.448-1.568-.672-2.496-.672-1.984 0-3.568.896-4.752 2.688-1.152 1.76-1.728 4.416-1.728 7.968zm20.104 8.976c-3.776 0-6.768-1.168-8.976-3.504s-3.312-5.328-3.312-8.976c0-3.584 1.104-6.56 3.312-8.928s5.2-3.552 8.976-3.552 6.768 1.184 8.976 3.552 3.312 5.344 3.312 8.928c0 3.648-1.104 6.64-3.312 8.976s-5.2 3.504-8.976 3.504zm-4.416-17.712c-1.088 1.376-1.632 3.12-1.632 5.232s.544 3.872 1.632 5.28c1.12 1.408 2.592 2.112 4.416 2.112s3.296-.704 4.416-2.112c1.088-1.408 1.632-3.168 1.632-5.28s-.544-3.856-1.632-5.232c-1.12-1.44-2.592-2.16-4.416-2.16-1.856 0-3.328.72-4.416 2.16zm38.918 9.744 4.32-16.608h6l-7.728 24.192h-5.28l-4.176-15.648-4.176 15.648h-5.28l-7.728-24.192h6l4.32 16.608 4.08-16.608h5.568zm19.806-16.992c1.152 0 2.272.256 3.36.768 1.088.48 1.92 1.088 2.496 1.824v-12h5.952v33.984h-5.952v-2.496c-.416.736-1.184 1.408-2.304 2.016-1.088.576-2.272.864-3.552.864-3.52 0-6.24-1.104-8.16-3.312-1.92-2.24-2.88-5.296-2.88-9.168s.96-6.912 2.88-9.12c1.92-2.24 4.64-3.36 8.16-3.36zm.816 5.088c-1.632 0-2.976.656-4.032 1.968s-1.584 3.12-1.584 5.424c0 2.336.528 4.144 1.584 5.424 1.056 1.312 2.4 1.968 4.032 1.968 1.664 0 2.992-.64 3.984-1.92 1.056-1.28 1.584-3.104 1.584-5.472 0-2.304-.528-4.112-1.584-5.424-1.024-1.312-2.352-1.968-3.984-1.968z" fill="#595060"/><path d="m260.623 51.376v2.448h-16.657c.064 1.536.608 2.832 1.632 3.888 1.056 1.056 2.416 1.584 4.08 1.584 2.464 0 4.416-1.248 5.857-3.744l4.799 1.776c-2.08 4.704-5.744 7.056-10.992 7.056-1.984 0-3.76-.368-5.328-1.104-1.536-.768-2.752-1.76-3.648-2.976-.864-1.248-1.52-2.576-1.968-3.984-.448-1.44-.672-2.912-.672-4.416s.224-2.96.672-4.368c.448-1.44 1.104-2.768 1.968-3.984.896-1.248 2.112-2.24 3.648-2.976 1.568-.768 3.344-1.152 5.328-1.152 1.888 0 3.584.368 5.089 1.104 1.503.704 2.703 1.68 3.599 2.928 1.729 2.368 2.593 5.008 2.593 7.92zm-11.281-6.864c-1.376 0-2.544.448-3.504 1.344-.928.864-1.504 1.952-1.728 3.264h10.416c-.672-3.072-2.4-4.608-5.184-4.608zm26.084 2.784-5.04-1.152c.384-2.016 1.408-3.632 3.072-4.848 1.696-1.248 3.744-1.872 6.144-1.872 6.784 0 10.176 3.376 10.176 10.128v14.448h-4.896l-.624-3.072c-1.856 2.304-4.336 3.456-7.44 3.456-2.176 0-3.952-.656-5.328-1.968-1.344-1.312-2.016-3.104-2.016-5.376 0-2.4.944-4.32 2.832-5.76 1.92-1.44 4.416-2.16 7.488-2.16h4.032v-1.056c0-2.368-1.408-3.552-4.224-3.552-2.176 0-3.568.928-4.176 2.784zm.288 9.648c0 .672.224 1.232.672 1.68s1.056.672 1.824.672c1.472 0 2.768-.464 3.888-1.392 1.152-.928 1.728-2.128 1.728-3.6v-.48h-3.984c-2.752 0-4.128 1.04-4.128 3.12zm37.705 1.776 1.392 4.8c-1.248.576-2.56.864-3.936.864-2.816 0-5.008-.752-6.576-2.256-1.536-1.536-2.304-3.76-2.304-6.672v-10.56h-3.744v-5.088h3.744v-6.048l5.952-3.744v9.792h6.384v5.088h-6.384v10.464c0 1.408.256 2.416.768 3.024s1.312.912 2.4.912c.832 0 1.6-.192 2.304-.576zm18.653-19.296c1.568 0 3.024.368 4.368 1.104 1.376.704 2.448 1.648 3.216 2.832l-3.552 3.264c-1.12-1.408-2.464-2.112-4.032-2.112-.64 0-1.168.176-1.584.528s-.624.848-.624 1.488c0 .992.768 1.776 2.304 2.352l1.728.624 2.064.72c.224.096.8.4 1.728.912.864.448 1.44.864 1.728 1.248.992 1.12 1.488 2.432 1.488 3.936 0 2.208-.8 4.112-2.4 5.712-1.568 1.568-3.632 2.352-6.192 2.352-2.304 0-4.304-.656-6-1.968-1.664-1.28-2.864-2.8-3.6-4.56l4.752-2.544c.96 2.656 2.576 3.984 4.848 3.984 1.984 0 2.976-.864 2.976-2.592 0-.8-.432-1.408-1.296-1.824-.384-.224-.832-.416-1.344-.576-.288-.128-.864-.352-1.728-.672s-1.424-.528-1.68-.624c-1.632-.704-2.864-1.552-3.696-2.544-.8-.992-1.2-2.32-1.2-3.984 0-1.952.72-3.616 2.16-4.992 1.408-1.376 3.264-2.064 5.568-2.064z" fill="#bf8dff"/></svg>

<svg width="358" height="96" viewBox="0 0 358 96" fill="none" xmlns="http://www.w3.org/2000/svg">
<path d="M78.8559 45.014C79.4056 44.9608 79.896 45.3634 79.932 45.9145C80.3796 52.7664 78.6112 59.5909 74.8738 65.3723C70.9553 71.434 65.1025 75.9929 58.266 78.3086C51.4295 80.6242 44.011 80.5605 37.2153 78.1279C30.4195 75.6953 24.6458 71.0366 20.8319 64.9085C17.018 58.7804 15.3879 51.5428 16.2064 44.3714C17.0249 37.1999 20.2439 30.5158 25.3405 25.4047C30.4372 20.2936 37.1121 17.0556 44.2812 16.2168C51.1187 15.4168 58.0227 16.8439 63.9726 20.2714C64.4512 20.5471 64.5958 21.1648 64.3053 21.6346L49.061 46.2844C48.6259 46.9879 49.1845 47.8854 50.0078 47.8057L78.8559 45.014Z" fill="#595060"/>
<path d="M78.5203 13.7688C78.8147 13.3015 79.4331 13.1599 79.891 13.4687C83.7068 16.0418 86.9261 19.4101 89.3252 23.3468C91.7244 27.2834 93.2426 31.6885 93.7806 36.2592C93.8452 36.8077 93.4359 37.2925 92.8857 37.3399L64.0038 39.8274C63.1807 39.8983 62.6316 38.9972 63.0718 38.2982L78.5203 13.7688Z" fill="#CFAAFF"/>
<path d="M129.536 55.312L134.864 57.472C133.008 62.08 129.344 64.384 123.872 64.384C120.128 64.384 117.216 63.2 115.136 60.832C113.088 58.496 112.064 55.52 112.064 51.904C112.064 48.288 113.088 45.312 115.136 42.976C117.216 40.608 120.128 39.424 123.872 39.424C129.344 39.424 133.008 41.728 134.864 46.336L129.536 48.496C128.224 45.84 126.336 44.512 123.872 44.512C122.08 44.512 120.704 45.184 119.744 46.528C118.784 47.84 118.304 49.632 118.304 51.904C118.304 54.176 118.784 55.984 119.744 57.328C120.704 58.64 122.08 59.296 123.872 59.296C126.336 59.296 128.224 57.968 129.536 55.312ZM140.82 55.408V64H134.868V39.808H140.82V43.744C142.644 40.864 145.028 39.424 147.972 39.424C148.932 39.424 149.908 39.584 150.9 39.904L149.796 45.424C149.06 44.976 148.228 44.752 147.3 44.752C145.316 44.752 143.732 45.648 142.548 47.44C141.396 49.2 140.82 51.856 140.82 55.408ZM160.924 64.384C157.148 64.384 154.156 63.216 151.948 60.88C149.74 58.544 148.636 55.552 148.636 51.904C148.636 48.32 149.74 45.344 151.948 42.976C154.156 40.608 157.148 39.424 160.924 39.424C164.7 39.424 167.692 40.608 169.9 42.976C172.108 45.344 173.212 48.32 173.212 51.904C173.212 55.552 172.108 58.544 169.9 60.88C167.692 63.216 164.7 64.384 160.924 64.384ZM156.508 46.672C155.42 48.048 154.876 49.792 154.876 51.904C154.876 54.016 155.42 55.776 156.508 57.184C157.628 58.592 159.1 59.296 160.924 59.296C162.748 59.296 164.22 58.592 165.34 57.184C166.428 55.776 166.972 54.016 166.972 51.904C166.972 49.792 166.428 48.048 165.34 46.672C164.22 45.232 162.748 44.512 160.924 44.512C159.068 44.512 157.596 45.232 156.508 46.672ZM195.426 56.416L199.746 39.808H205.746L198.018 64H192.738L188.562 48.352L184.386 64H179.106L171.378 39.808H177.378L181.698 56.416L185.778 39.808H191.346L195.426 56.416ZM215.232 39.424C216.384 39.424 217.504 39.68 218.592 40.192C219.68 40.672 220.512 41.28 221.088 42.016V30.016H227.04V64H221.088V61.504C220.672 62.24 219.904 62.912 218.784 63.52C217.696 64.096 216.512 64.384 215.232 64.384C211.712 64.384 208.992 63.28 207.072 61.072C205.152 58.832 204.192 55.776 204.192 51.904C204.192 48.032 205.152 44.992 207.072 42.784C208.992 40.544 211.712 39.424 215.232 39.424ZM216.048 44.512C214.416 44.512 213.072 45.168 212.016 46.48C210.96 47.792 210.432 49.6 210.432 51.904C210.432 54.24 210.96 56.048 212.016 57.328C213.072 58.64 214.416 59.296 216.048 59.296C217.712 59.296 219.04 58.656 220.032 57.376C221.088 56.096 221.616 54.272 221.616 51.904C221.616 49.6 221.088 47.792 220.032 46.48C219.008 45.168 217.68 44.512 216.048 44.512Z" fill="#595060"/>
<path d="M260.623 51.376V53.824H243.966C244.03 55.36 244.574 56.656 245.598 57.712C246.654 58.768 248.014 59.296 249.678 59.296C252.142 59.296 254.094 58.048 255.535 55.552L260.334 57.328C258.254 62.032 254.59 64.384 249.342 64.384C247.358 64.384 245.582 64.016 244.014 63.28C242.478 62.512 241.262 61.52 240.366 60.304C239.502 59.056 238.846 57.728 238.398 56.32C237.95 54.88 237.726 53.408 237.726 51.904C237.726 50.4 237.95 48.944 238.398 47.536C238.846 46.096 239.502 44.768 240.366 43.552C241.262 42.304 242.478 41.312 244.014 40.576C245.582 39.808 247.358 39.424 249.342 39.424C251.23 39.424 252.926 39.792 254.431 40.528C255.934 41.232 257.134 42.208 258.03 43.456C259.759 45.824 260.623 48.464 260.623 51.376ZM249.342 44.512C247.966 44.512 246.798 44.96 245.838 45.856C244.91 46.72 244.334 47.808 244.11 49.12H254.526C253.854 46.048 252.126 44.512 249.342 44.512ZM275.426 47.296L270.386 46.144C270.77 44.128 271.794 42.512 273.458 41.296C275.154 40.048 277.202 39.424 279.602 39.424C286.386 39.424 289.778 42.8 289.778 49.552V64H284.882L284.258 60.928C282.402 63.232 279.922 64.384 276.818 64.384C274.642 64.384 272.866 63.728 271.49 62.416C270.146 61.104 269.474 59.312 269.474 57.04C269.474 54.64 270.418 52.72 272.306 51.28C274.226 49.84 276.722 49.12 279.794 49.12H283.826V48.064C283.826 45.696 282.418 44.512 279.602 44.512C277.426 44.512 276.034 45.44 275.426 47.296ZM275.714 56.944C275.714 57.616 275.938 58.176 276.386 58.624C276.834 59.072 277.442 59.296 278.21 59.296C279.682 59.296 280.978 58.832 282.098 57.904C283.25 56.976 283.826 55.776 283.826 54.304V53.824H279.842C277.09 53.824 275.714 54.864 275.714 56.944ZM313.419 58.72L314.811 63.52C313.563 64.096 312.251 64.384 310.875 64.384C308.059 64.384 305.867 63.632 304.299 62.128C302.763 60.592 301.995 58.368 301.995 55.456V44.896H298.251V39.808H301.995V33.76L307.947 30.016V39.808H314.331V44.896H307.947V55.36C307.947 56.768 308.203 57.776 308.715 58.384C309.227 58.992 310.027 59.296 311.115 59.296C311.947 59.296 312.715 59.104 313.419 58.72ZM332.072 39.424C333.64 39.424 335.096 39.792 336.44 40.528C337.816 41.232 338.888 42.176 339.656 43.36L336.104 46.624C334.984 45.216 333.64 44.512 332.072 44.512C331.432 44.512 330.904 44.688 330.488 45.04C330.072 45.392 329.864 45.888 329.864 46.528C329.864 47.52 330.632 48.304 332.168 48.88L333.896 49.504L335.96 50.224C336.184 50.32 336.76 50.624 337.688 51.136C338.552 51.584 339.128 52 339.416 52.384C340.408 53.504 340.904 54.816 340.904 56.32C340.904 58.528 340.104 60.432 338.504 62.032C336.936 63.6 334.872 64.384 332.312 64.384C330.008 64.384 328.008 63.728 326.312 62.416C324.648 61.136 323.448 59.616 322.712 57.856L327.464 55.312C328.424 57.968 330.04 59.296 332.312 59.296C334.296 59.296 335.288 58.432 335.288 56.704C335.288 55.904 334.856 55.296 333.992 54.88C333.608 54.656 333.16 54.464 332.648 54.304C332.36 54.176 331.784 53.952 330.92 53.632C330.056 53.312 329.496 53.104 329.24 53.008C327.608 52.304 326.376 51.456 325.544 50.464C324.744 49.472 324.344 48.144 324.344 46.48C324.344 44.528 325.064 42.864 326.504 41.488C327.912 40.112 329.768 39.424 332.072 39.424Z" fill="#BF8DFF"/>
</svg>
